!! 00000] TT[00
!! NN
!!!OTL: Sha luo dai chou
!!!ARE: Asia, China, Fujian
!! Ethnic Group: Han?
!! MM
!!!SCT: C1288
!!!YEM: Copyright 1995, estate of Helmut Schaffrath.
**kern
*ICvox
*Ivox
*M2/4
*k[]
*C:
{8e
8e
8B
8e
=1
4d
8e
8B
=2
8B
8e
8d
8B
=3
8c
8d
4d
=4
4A
8c
8d}
=5
{8c
8d
8c
8A
=6
8G
8A
8c
16e
16c
=7
8d
8c
8A
8A
=8
4G
8G
8r}
==
!!!AGN: Shange
!!!ONB: ESAC (Essen Associative Code) Database: CHINA
!!!AMT: simple duple
!!!AIN: vox
!!!EED: Helmut Schaffrath
!!!EEV: 1.0
*-
